docs/images/use/1.svg

<svg width="53" height="86" viewBox="0 0 53 86" fill="none" xmlns="http://www.w3.org/2000/svg">
<path d="M47.0852 28.6221H0L6.38179 85.4356H46.696L53 28.6221H47.0852ZM25.3715 41.7748C31.9868 46.2109 38.6799 41.7748 38.5242 40.3739L36.0338 72.8276H16.8884L14.3979 40.0626C14.3979 40.0626 17.1997 36.2491 25.4493 41.7748H25.3715Z" fill="white"/>
<path d="M10.1963 9.78786V2.08301H14.3989C22.026 2.08301 27.3182 4.80694 27.3182 15.0022C27.3182 20.6836 22.7264 22.8627 20.0025 22.8627C12.5311 22.8627 10.1963 16.7144 10.1963 9.78786Z" fill="white"/>
<path fill-rule="evenodd" clip-rule="evenodd" d="M52.5075 4.17662L36.9421 35.3073L28.5889 31.1307L44.1542 0L52.5075 4.17662Z" fill="white"/>
</svg>

<svg xmlns="http://www.w3.org/2000/svg" width="53" height="86" fill="none"><path fill="#fff" d="M47.085 28.622H0l6.382 56.814h40.314L53 28.622zM25.372 41.775c6.615 4.436 13.308 0 13.152-1.401l-2.49 32.454H16.888l-2.49-32.765s2.802-3.814 11.051 1.712zM10.196 9.788V2.083H14.4c7.627 0 12.92 2.724 12.92 12.92 0 5.68-4.593 7.86-7.316 7.86-7.472 0-9.807-6.149-9.807-13.075"/><path fill="#fff" fill-rule="evenodd" d="m52.508 4.177-15.566 31.13-8.353-4.176L44.154 0z" clip-rule="evenodd"/></svg>
